X:1
T:Three Sea Captains
M:6/8
L:1/8
K:G
D|"G"G2G BGB|"D"c2A F2D|"G"G2G BGB|d2BG2B|!
"Am"cec A2c|"G"BdB G2B|"D"A2Bc2B|ABG FED|!
"G"G2G BGB|"D"c2A F2D|"G"G2G BGB|d2BG2B|!
"C"cec A2c|"G"BdB G2F|"C"EcB "D"AGF|"G"G3 G2d|!
"G"g2g dcB|"D"ABc def|"G"g2g dBd|"Am"ecA A2f|!
"Em"gfg bge|"D"fef afd|"A7"e2fg2f|ed^c "D"def|!
"G"g2g dcB|"D"ABc def|"G"g2g dBd|"Am"ecA A2e|!
"Em"gfg bge|"D"fed AFD|"C"EcB "D"AGF|"G"G3G2|]!
